X:1
T:Good King Wenceslas
T:Good King Wenceslas - Recorder Quartet
T:Piae Cantiones
T:John Mason Neale
C:Piae Cantiones
Z:John Mason Neale
%%score 1 2 3 4
L:1/8
M:4/4
K:G
V:1 treble+8 nm="S" snm="S"
V:2 treble nm="A" snm="A"
V:3 treble nm="T" snm="T"
V:4 bass+8 nm="B" snm="B"
V:1
 G2 G2 G2 A2 | G2 G2 D4 | E2 D2 E2 F2 | G4 G4 | G2 G2 G2 A2 | G2 G2 D4 | E2 D2 E2 F2 | G4 G4 | %8
 d2 c2 B2 A2 | B2 A2 G4 | E2 D2 E2 F2 | G4 G4 | D2 D2 E2 F2 | G2 G2 A4 | d2 c2 B2 A2 | G4 c4 | %16
 G8 || z8 | z8 | z8 | z8 | z8 | z8 | z8 | z8 | z8 | z8 | z8 | z8 | D2 D2 E2 F2 | G2 G2 A4 | %31
 d2 c2 B2 A2 | G4 c4 | G8 || G2 G2 G2 A2 | G2 G2 D4 | E3 D E2 F2 | G4 G4 | G2 G2 G2 A2 | G2 G2 D4 | %40
 E2 D2 E2 F2 | G4 G4 | d2 c2 B2 A2 | B2 A2 G4 | E2 D2 E2 F2 | G4 G4 | D2 D2 E2 F2 | G2 G2 A4 | %48
 d2 c2 B2 A2 | G2 B2 c2 ef | g8 |] %51
V:2
 B2 d2 e2 f2 | d2 e2 A4 | c2 d2 c4 | d4 d4 | B2 d2 e2 f2 | d2 e2 A4 | c2 d2 c4 | d4 d4 | %8
 g2 e2 g2 f2 | g2 f2 e4 | g8 | d2 e2 d4 | B2 B2 c2 ^d2 | e2 e2 f4 | g2 a2 g2 f2 | e4 g4 | d8 || %17
 z8 | z8 | z8 | z8 | z8 | z8 | z8 | z8 | d2 c2 B2 A2 | B2 A2 G4 | e2 d2 e3 f | g4 g4 | %29
 B2 B2 c2 ^d2 | e2 e2 f4 | g2 a2 g2 f2 | e4 g4 | d8 || B4 e2 f2 | GABc A4 | c3 d c2 c2 | defe d4 | %38
 B4 e2 f2 | GABc A4 | g6 fe | d4 d2 ef | g6 f2 | g2 f2 e4 | g6 fe | d2 e2 d4 | B2 B2 c2 ^d2 | %47
 e2 e2 f4 | g2 a2 g2 f2 | e4 g4 | d8 |] %51
V:3
 B6 d2 | G2 A2 G2 F2 | G6 A2 | B4 B4 | B6 d2 | G2 A2 G2 F2 | G6 A2 | B4 B4 | G2 A2 B2 c2 | %9
 d2 ^d2 e4 | c2 d2 c4 | B2 c2 B4 | G6 B2 | B4 d4 | d2 e2 d4 | B4 c4 | B8 || z8 | z8 | z8 | z8 | %21
 G2 G2 G2 A2 | G3 G D4 | E2 D2 E2 F2 | G4 G4 | G6 F2 | G2 F2 E4 | c2 d2 c4 | B2 c2 B4 | G6 B2 | %30
 B2 ed c2 fe | d2 e2 d2 d2 | B4 c4 | B8 || B2 A2 G2 F2 | EFGA G2 F2 | G6 A2 | Bcdc B4 | %38
 B2 A2 G2 F2 | EFGA G2 F2 | c6 dc | B4 B2 GA | G2 A2 B2 c2 | d2 ^d2 e3 =d | c2 d2 c4 | B2 c2 B4 | %46
 G6 B2 | B2 ed c2 fe | d2 e2 d2 d2 | B4 c4 | B8 |] %51
V:4
 G,,2 G,2 E,2 D,2 | B,,2 C,2 D,4 | C,2 B,,2 A,,2 D,2 | G,,4 G,4 | G,,2 G,2 E,2 D,2 | B,,2 C,2 D,4 | %6
 C,2 B,,2 A,,2 D,2 | G,,4 G,4 | B,2 A,2 G,2 F,2 | G,2 B,,2 E,2 D,2 | C,2 B,,2 A,,4 | G,,4 G,,4 | %12
 G,2 E,2 C,2 B,,2 | E,4 D,2 C,2 | B,,2 C,2 D,4 | E,2 D,2 C,2 E,2 | G,,8 || G,2 G,2 G,2 A,2 | %18
 G,2 G,2 D,4 | E,3 D, E,2 F,2 | G,4 G,4 | G,2 F,2 E,2 D,2 | D,C,B,,A,, G,,4 | C,2 B,,2 A,,2 D,2 | %24
 G,,4 C,D,E,F, | B,2 A,2 G,2 F,2 | G,2 B,,2 E,2 D,2 | C,2 B,,2 A,,4 | G,,4 D,2 B,,D, | %29
 G,2 E,2 C,2 B,,2 | E,4 D,2 C,2 | B,,2 C,2 D,2 D,2 | E,2 D,2 C,2 E,2 | G,,8 || G,2 F,2 E,2 D,2 | %35
 B,,2 C,2 D,4 | C,2 B,,2 A,,2 D,2 | G,,6 G,2 | G,2 F,2 E,2 D,2 | B,,2 C,2 D,4 | C,2 B,,2 A,,2 D,2 | %41
 G,,4 G,4 | B,2 A,2 G,2 F,2 | G,2 B,,2 E,2 D,2 | C,2 B,,2 A,,4 | G,,4 D,2 B,,D, | %46
 G,2 E,2 C,2 B,,2 | E,4 D,2 C,2 | B,,2 C,2 D,2 D,2 | E,2 D,2 C,2 E,2 | G,,8 |] %51

